img/map-markers/cities.svg

<svg width="150" height="150" viewBox="0 0 150 150" fill="none" xmlns="http://www.w3.org/2000/svg">
<g filter="url(#filter0_d_2_118)">
<circle cx="75" cy="65" r="25" fill="white"/>
</g>
<circle cx="75" cy="65" r="25" fill="white"/>
<circle cx="75.236" cy="64.7641" r="21.934" fill="#FC6733"/>
<path d="M78.7268 57.5071C78.3437 57.8285 77.9606 58.1474 77.5775 58.4687C77.6633 58.8972 77.7519 59.3281 77.8377 59.7566C77.8777 59.9562 77.8263 60.1437 77.6319 60.2703C77.446 60.3944 77.203 60.4042 76.9972 60.3117C76.534 60.1047 76.0709 59.8954 75.6077 59.6909C75.1417 59.8954 74.6786 60.1023 74.2126 60.3117C74.0039 60.4042 73.7637 60.3896 73.5779 60.2678C73.3835 60.1388 73.332 59.9538 73.372 59.7566C73.4578 59.3281 73.5464 58.8972 73.6322 58.4688C73.252 58.1498 72.8689 57.8285 72.4887 57.5096C72.3428 57.3878 72.2885 57.2028 72.3428 57.0348C72.3915 56.8863 72.5515 56.7184 72.7431 56.694C73.2863 56.6258 73.8323 56.5601 74.3755 56.4919C74.6214 56.0732 74.8701 55.6545 75.116 55.2357C75.1703 55.1432 75.2589 55.0799 75.3619 55.041C75.5305 54.9801 75.7392 54.9874 75.8993 55.0605C75.9651 55.0897 76.0165 55.1286 76.0565 55.1724C76.0594 55.1773 76.0651 55.1797 76.068 55.1846C76.0708 55.187 76.0737 55.1919 76.0766 55.1943C76.0794 55.1992 76.0823 55.2041 76.0851 55.2065C76.0909 55.2163 76.0966 55.226 76.1023 55.2357C76.1109 55.2503 76.1194 55.2649 76.128 55.2796C76.3653 55.6837 76.6026 56.0878 76.8399 56.4919C77.3859 56.5601 77.932 56.6258 78.478 56.694C78.6696 56.7183 78.8297 56.8863 78.8783 57.0348C78.9269 57.2004 78.8725 57.3878 78.7267 57.5071L78.7268 57.5071Z" fill="white"/>
<path d="M87.3576 66.1594V66.1472V66.1302C87.3576 66.1034 87.3518 66.0766 87.349 66.0523C87.2861 65.653 86.9287 65.3706 86.4398 65.3584C86.3798 65.356 86.3169 65.356 86.2569 65.356H82.526V64.2581C82.526 63.7444 82.5403 63.2307 82.526 62.717V62.6854C82.526 62.6586 82.5232 62.6318 82.5174 62.605V62.6026C82.4517 62.1985 82.0886 61.9088 81.5912 61.9015C81.5254 61.9015 81.4596 61.899 81.391 61.899H70.1301C69.9585 61.899 69.7842 61.8966 69.6098 61.9015C69.0923 61.9137 68.6749 62.2399 68.6606 62.6878V62.7901V65.356H64.9841C64.6725 65.356 64.3752 65.3804 64.1236 65.5703C63.7862 65.8259 63.8291 66.1716 63.8291 66.5124V73.2972C63.8291 74.0251 63.8148 74.753 63.8291 75.4785V75.5101C63.8291 75.7731 64.0921 75.9946 64.4009 75.9946H72.7772V70.7043C72.7772 70.4413 73.0402 70.2247 73.349 70.2247H77.8947C78.2034 70.2247 78.4665 70.4414 78.4665 70.7043V75.9946H80.3876C80.9022 75.9946 81.4197 76.0068 81.9343 75.9946H81.9572H86.7887C87.0975 75.9946 87.3605 75.7755 87.3605 75.5126V67.2913C87.3576 66.9139 87.3691 66.5366 87.3576 66.1592L87.3576 66.1594ZM67.4312 72.523C67.4312 72.7957 67.1682 72.9978 66.8594 73.0099C66.5506 73.0221 66.2876 72.7787 66.2876 72.523V68.7179C66.2876 68.4452 66.5506 68.2432 66.8594 68.231C67.1681 68.2188 67.4312 68.4623 67.4312 68.7179V72.523ZM73.9208 67.3596C73.9208 67.6322 73.6578 67.8343 73.349 67.8465C73.0403 67.8587 72.7772 67.6152 72.7772 67.3596V64.9981C72.7772 64.7254 73.0402 64.5234 73.349 64.5112C73.6578 64.499 73.9208 64.7425 73.9208 64.9981V67.3596ZM78.4665 67.3596C78.4665 67.6322 78.2035 67.8343 77.8947 67.8465C77.5859 67.8587 77.3229 67.6152 77.3229 67.3596V64.9981C77.3229 64.7254 77.5859 64.5234 77.8947 64.5112C78.2034 64.499 78.4665 64.7425 78.4665 64.9981V67.3596ZM85.0706 72.523C85.0706 72.7957 84.8076 72.9978 84.4988 73.0099C84.19 73.0221 83.927 72.7787 83.927 72.523V68.7179C83.927 68.4452 84.19 68.2432 84.4988 68.231C84.8076 68.2188 85.0706 68.4623 85.0706 68.7179V72.523Z" fill="white"/>
<defs>
<filter id="filter0_d_2_118" x="0" y="0" width="150" height="150" filterUnits="userSpaceOnUse" color-interpolation-filters="sRGB">
<feFlood flood-opacity="0" result="BackgroundImageFix"/>
<feColorMatrix in="SourceAlpha" type="matrix" values="0 0 0 0 0 0 0 0 0 0 0 0 0 0 0 0 0 0 127 0" result="hardAlpha"/>
<feOffset dy="10"/>
<feGaussianBlur stdDeviation="25"/>
<feColorMatrix type="matrix" values="0 0 0 0 0 0 0 0 0 0 0 0 0 0 0 0 0 0 0.1 0"/>
<feBlend mode="normal" in2="BackgroundImageFix" result="effect1_dropShadow_2_118"/>
<feBlend mode="normal" in="SourceGraphic" in2="effect1_dropShadow_2_118" result="shape"/>
</filter>
</defs>
</svg>

<svg width="150" height="150" viewBox="0 0 150 150" fill="none" xmlns="http://www.w3.org/2000/svg"><circle cx="75" cy="65" r="25" fill="#fff" filter="url(#a)"/><circle cx="75" cy="65" r="25" fill="#fff"/><circle cx="75.236" cy="64.764" r="21.934" fill="#FC6733"/><path d="M78.727 57.507c-.383.322-.766.64-1.15.962.086.428.175.86.26 1.288.04.2-.01.387-.205.513a.66.66 0 0 1-.635.042c-.463-.207-.926-.417-1.39-.621-.465.204-.928.411-1.394.62a.667.667 0 0 1-.635-.043.462.462 0 0 1-.206-.511l.26-1.288-1.143-.96a.438.438 0 0 1-.146-.474.527.527 0 0 1 .4-.341l1.633-.202c.245-.419.494-.837.74-1.256a.467.467 0 0 1 .246-.195.743.743 0 0 1 .537.02.47.47 0 0 1 .157.111c.003.005.01.008.012.013l.009.01c.002.004.005.01.008.011l.017.03.026.044.712 1.212 1.638.202a.526.526 0 0 1 .4.34.449.449 0 0 1-.151.473zm8.631 8.653v-.03c0-.027-.006-.053-.009-.078-.063-.399-.42-.681-.91-.694-.06-.002-.122-.002-.182-.002h-3.731v-1.098c0-.514.014-1.027 0-1.541v-.032a.379.379 0 0 0-.009-.08v-.002c-.065-.404-.428-.694-.926-.702l-.2-.002h-11.26c-.172 0-.347-.002-.521.002-.518.013-.935.339-.95.787v2.668h-3.676c-.311 0-.609.024-.86.214-.338.256-.295.602-.295.942v6.785c0 .728-.014 1.456 0 2.181v.032c0 .263.263.485.572.485h8.376v-5.29c0-.264.263-.48.572-.48h4.546c.308 0 .572.216.572.48v5.29h1.92c.515 0 1.033.012 1.547 0h4.856c.308 0 .572-.22.572-.482V67.29c-.003-.377.008-.754-.003-1.132zM67.43 72.522c0 .273-.263.475-.572.487-.308.012-.571-.231-.571-.487v-3.805c0-.273.263-.475.571-.487.31-.012.572.231.572.487v3.805zm6.49-5.163c0 .272-.263.474-.572.487-.309.012-.572-.232-.572-.487v-2.362c0-.273.263-.475.572-.487.309-.012.572.232.572.487v2.362zm4.545 0c0 .272-.262.474-.571.487-.31.012-.572-.232-.572-.487v-2.362c0-.273.263-.475.572-.487.308-.012.572.232.572.487v2.362zm6.605 5.163c0 .273-.263.475-.572.487-.309.012-.572-.231-.572-.487v-3.805c0-.273.263-.475.572-.487.309-.012.572.231.572.487v3.805z" fill="#fff"/><defs><filter id="a" x="0" y="0" width="150" height="150" filterUnits="userSpaceOnUse" color-interpolation-filters="sRGB"><feFlood flood-opacity="0" result="BackgroundImageFix"/><feColorMatrix in="SourceAlpha" values="0 0 0 0 0 0 0 0 0 0 0 0 0 0 0 0 0 0 127 0" result="hardAlpha"/><feOffset dy="10"/><feGaussianBlur stdDeviation="25"/><feColorMatrix values="0 0 0 0 0 0 0 0 0 0 0 0 0 0 0 0 0 0 0.1 0"/><feBlend in2="BackgroundImageFix" result="effect1_dropShadow_2_118"/><feBlend in="SourceGraphic" in2="effect1_dropShadow_2_118" result="shape"/></filter></defs></svg>
